assets/emojis/WinkingFacewithTongue.svg

<svg width="126" height="125" viewBox="0 0 126 125" fill="none" xmlns="http://www.w3.org/2000/svg">
<circle cx="63.1045" cy="62.3496" r="62.3496" fill="#F9B42F"/>
<path d="M37.8424 61.923C40.4973 61.923 42.6496 59.7707 42.6496 57.1158C42.6496 54.4609 40.4973 52.3086 37.8424 52.3086C35.1874 52.3086 33.0352 54.4609 33.0352 57.1158C33.0352 59.7707 35.1874 61.923 37.8424 61.923Z" fill="#2C2A46"/>
<path d="M63.3962 84.607C61.4166 84.6035 59.4423 84.4019 57.5029 84.0053V87.5448C57.4888 88.3392 57.6331 89.1285 57.9274 89.8665C58.2217 90.6045 58.6601 91.2766 59.2169 91.8433C59.7738 92.4101 60.438 92.8602 61.1707 93.1674C61.9035 93.4747 62.6901 93.6328 63.4846 93.6327C64.2702 93.6327 65.048 93.478 65.7738 93.1774C66.4995 92.8768 67.1589 92.4361 67.7144 91.8807C68.2698 91.3252 68.7104 90.6658 69.0111 89.9401C69.3117 89.2143 69.4664 88.4365 69.4664 87.6509V83.5537C67.4662 83.9332 65.4314 84.657 63.3962 84.607Z" fill="#FF5A60"/>
<path d="M63.398 84.6071H62.6016V87.7926C62.6016 88.0273 62.6948 88.2524 62.8607 88.4183C63.0267 88.5842 63.2518 88.6775 63.4864 88.6775C63.7211 88.6775 63.9462 88.5842 64.1121 88.4183C64.2781 88.2524 64.3713 88.0273 64.3713 87.7926V84.5894L63.398 84.6071Z" fill="#E93A40"/>
<path d="M63.3982 84.6069C56.0538 84.6069 49.7712 82.0584 47.7714 78.2535C47.5737 77.8474 47.5387 77.3812 47.6736 76.9501C47.8085 76.5191 48.103 76.156 48.497 75.9351C48.7024 75.8237 48.9279 75.754 49.1604 75.7302C49.3929 75.7064 49.6278 75.7289 49.8516 75.7963C50.0754 75.8638 50.2836 75.9749 50.4642 76.1233C50.6448 76.2716 50.7942 76.4543 50.9038 76.6607C52.0365 78.8375 56.8148 81.1382 63.3982 81.1382C69.9817 81.1382 75.0609 78.749 75.9988 76.4306C76.0872 76.2145 76.2172 76.0179 76.3815 75.852C76.5458 75.6861 76.7412 75.5542 76.9564 75.4638C77.1717 75.3734 77.4027 75.3263 77.6362 75.3252C77.8697 75.3241 78.1011 75.369 78.3172 75.4573C78.5334 75.5456 78.73 75.6756 78.8959 75.8399C79.0618 76.0042 79.1937 76.1996 79.284 76.4149C79.3744 76.6302 79.4215 76.8611 79.4226 77.0946C79.4238 77.3281 79.3789 77.5595 79.2906 77.7757C77.6093 81.7753 71.0789 84.6069 63.3982 84.6069Z" fill="#2C2A46"/>
<path d="M92.2392 59.7997C91.7698 59.7997 91.3196 59.6132 90.9878 59.2814C90.6559 58.9495 90.4694 58.4993 90.4694 58.03C90.4972 57.7168 90.4594 57.4014 90.3587 57.1036C90.2579 56.8059 90.0962 56.5324 89.884 56.3005C89.6718 56.0686 89.4136 55.8834 89.1259 55.7568C88.8382 55.6301 88.5273 55.5646 88.213 55.5646C87.8986 55.5646 87.5877 55.6301 87.3 55.7568C87.0124 55.8834 86.7542 56.0686 86.542 56.3005C86.3297 56.5324 86.1681 56.8059 86.0673 57.1036C85.9665 57.4014 85.9288 57.7168 85.9565 58.03C85.9565 58.4993 85.7701 58.9495 85.4382 59.2814C85.1063 59.6132 84.6562 59.7997 84.1868 59.7997C83.7174 59.7997 83.2673 59.6132 82.9354 59.2814C82.6035 58.9495 82.4171 58.4993 82.4171 58.03C82.3735 57.2419 82.4911 56.4532 82.7627 55.7121C83.0343 54.9711 83.4541 54.2931 83.9966 53.7198C84.5391 53.1465 85.1928 52.6899 85.9178 52.3778C86.6427 52.0657 87.4237 51.9048 88.213 51.9048C89.0022 51.9048 89.7832 52.0657 90.5082 52.3778C91.2331 52.6899 91.8868 53.1465 92.4293 53.7198C92.9718 54.2931 93.3917 54.9711 93.6633 55.7121C93.9349 56.4532 94.0525 57.2419 94.0089 58.03C94.0089 58.4993 93.8224 58.9495 93.4906 59.2814C93.1587 59.6132 92.7085 59.7997 92.2392 59.7997Z" fill="#2C2A46"/>
<path opacity="0.3" fill-rule="evenodd" clip-rule="evenodd" d="M113.439 98.3676C102.117 109.959 86.3148 117.154 68.832 117.154C34.3972 117.154 6.48235 89.2396 6.48235 54.8048C6.48235 41.4092 10.7068 29.0002 17.8962 18.8374C6.91845 30.0765 0.15332 45.4483 0.15332 62.4002C0.15332 96.8349 28.0682 124.75 62.5029 124.75C83.542 124.75 102.147 114.329 113.439 98.3676Z" fill="#BC8417"/>
</svg>

<svg xmlns="http://www.w3.org/2000/svg" width="126" height="125" fill="none" viewBox="0 0 126 125"><circle cx="63.105" cy="62.35" r="62.35" fill="#f9b42f"/><path fill="#2c2a46" d="M37.842 61.923a4.807 4.807 0 1 0 0-9.615 4.807 4.807 0 0 0 0 9.615"/><path fill="#ff5a60" d="M63.396 84.607a29.7 29.7 0 0 1-5.893-.602v3.54a5.981 5.981 0 1 0 11.963.106v-4.097c-2 .38-4.035 1.103-6.07 1.053"/><path fill="#e93a40" d="M63.398 84.607h-.796v3.186a.885.885 0 1 0 1.77 0v-3.204z"/><path fill="#2c2a46" d="M63.398 84.607c-7.344 0-13.627-2.549-15.627-6.353a1.77 1.77 0 0 1 .726-2.319 1.77 1.77 0 0 1 2.407.726c1.132 2.177 5.91 4.477 12.494 4.477s11.663-2.389 12.6-4.707a1.78 1.78 0 0 1 2.898-.591 1.78 1.78 0 0 1 .395 1.936c-1.682 4-8.212 6.83-15.893 6.83M92.24 59.8a1.77 1.77 0 0 1-1.77-1.77 2.266 2.266 0 1 0-4.513 0 1.77 1.77 0 1 1-3.54 0 5.804 5.804 0 1 1 11.592 0 1.77 1.77 0 0 1-1.77 1.77"/><path fill="#bc8417" fill-rule="evenodd" d="M113.439 98.368c-11.322 11.591-27.124 18.786-44.607 18.786-34.435 0-62.35-27.914-62.35-62.35 0-13.395 4.225-25.804 11.414-35.967C6.918 30.077.153 45.448.153 62.4c0 34.435 27.915 62.35 62.35 62.35 21.039 0 39.644-10.421 50.936-26.382" clip-rule="evenodd" opacity=".3"/></svg>
